icon-svg/camera-person.svg

<svg xmlns="http://www.w3.org/2000/svg" fill="#44739e" viewBox="0 0 24 24"><path d="m10.9 14.166-.6-.3-.433-1.038a3.082 3.082 0 0 0-1.357-1.509 1.33 1.33 0 0 0 1.087-1.3 1.35 1.35 0 1 0-2.329.916c-.088-.007-.176-.02-.266-.02a4.59 4.59 0 0 0-1.858.394l-.225.1a3.6 3.6 0 0 0-1.95 2.151l-.074.219a.9.9 0 1 0 1.707.571l.073-.219a1.8 1.8 0 0 1 .975-1.074l.225-.1.079-.032-.474 1.787a1.8 1.8 0 0 0 .413 1.678l1.988 2.167.619 2.477a.9.9 0 0 0 1.746-.436L9.6 18.009a1.36 1.36 0 0 0-.315-.585l-1.393-1.518.542-1.841.27.647a1.348 1.348 0 0 0 .641.688l.754.374a.9.9 0 1 0 .8-1.608zm-5.864 2.592-.7 1.754-1.67 1.667a.9009.9009 0 0 0 1.274 1.274l1.734-1.735a1.35 1.35 0 0 0 .3-.452l.408-1.018L5.232 17a2.8 2.8 0 0 1-.196-.242M3.681 2.762h-1v1a1 1 0 0 0 1-1m1.335 0h-.67a1.664 1.664 0 0 1-1.665 1.665V5.1a2.334 2.334 0 0 0 2.335-2.338m1.33 0h-.665a3 3 0 0 1-3 3v.665a3.665 3.665 0 0 0 3.665-3.665M12 6.638l1.75 3.03 1.265-1.59-1-1.735zm7.5 2.69V7.973a1.251 1.251 0 0 0 .75-1.145 1.18 1.18 0 0 0-.265-.75l.985-.578a1.057 1.057 0 0 0 .385-1.446l-.69-1.2a1.062 1.062 0 0 0-1.445-.39l-4.065 2.36a.987.987 0 0 0-.365 1.354l.75 1.3a1 1 0 0 0 1.365.365l.94-.541a1.27 1.27 0 0 0 .655.666v1.36a1 1 0 0 0 1 1H22v-1z"/></svg>

<?xml version="1.0" encoding="UTF-8"?>
<svg width="24px" fill="#44739e" height="24px" viewBox="0 0 24 24" version="1.1" xmlns="http://www.w3.org/2000/svg" xmlns:xlink="http://www.w3.org/1999/xlink">
            <path d="m 10.9,14.166 -0.6,-0.3 -0.433,-1.038 A 3.082,3.082 0 0 0 8.51,11.319 1.33,1.33 0 0 0 9.597,10.019 1.35,1.35 0 1 0 7.268,10.935 C 7.18,10.928 7.092,10.915 7.002,10.915 a 4.591,4.591 0 0 0 -1.858,0.394 l -0.225,0.1 A 3.6,3.6 0 0 0 2.969,13.56 L 2.895,13.779 A 0.9,0.9 0 1 0 4.602,14.35 L 4.675,14.131 A 1.8,1.8 0 0 1 5.65,13.057 l 0.225,-0.1 0.079,-0.032 -0.474,1.787 a 1.8,1.8 0 0 0 0.413,1.678 l 1.988,2.167 0.619,2.477 a 0.9,0.9 0 0 0 1.746,-0.436 L 9.6,18.009 A 1.363,1.363 0 0 0 9.285,17.424 l -1.393,-1.518 0.542,-1.841 0.27,0.647 A 1.348,1.348 0 0 0 9.345,15.4 l 0.754,0.374 a 0.9,0.9 0 1 0 0.8,-1.608 z m -5.864,2.592 -0.7,1.754 -1.67,1.667 a 0.90085404,0.90085404 0 0 0 1.274,1.274 l 1.734,-1.735 a 1.348,1.348 0 0 0 0.3,-0.452 L 6.382,18.248 5.232,17 A 2.766,2.766 0 0 1 5.036,16.758 Z M 3.681,2.762 h -1 v 1 a 1,1 0 0 0 1,-1 z m 1.335,0 H 4.346 A 1.664,1.664 0 0 1 2.681,4.427 V 5.1 A 2.334,2.334 0 0 0 5.016,2.762 Z m 1.33,0 H 5.681 a 3,3 0 0 1 -3,3 V 6.427 A 3.665,3.665 0 0 0 6.346,2.762 Z M 12,6.638 l 1.75,3.03 1.265,-1.59 -1,-1.735 z m 7.5,2.69 V 7.973 A 1.251,1.251 0 0 0 20.25,6.828 1.181,1.181 0 0 0 19.985,6.078 L 20.97,5.5 a 1.057,1.057 0 0 0 0.385,-1.446 l -0.69,-1.2 A 1.062,1.062 0 0 0 19.22,2.464 l -4.065,2.36 A 0.987,0.987 0 0 0 14.79,6.178 l 0.75,1.3 a 1,1 0 0 0 1.365,0.365 l 0.94,-0.541 A 1.269,1.269 0 0 0 18.5,7.968 v 1.36 a 1,1 0 0 0 1,1 H 22 v -1 z"/>

</svg>
